Bloom-Colors/scalable/apps/system-tray-symbolic.svg

<svg xmlns="http://www.w3.org/2000/svg" width="16" height="16" version="1.1">
 <path style="fill:#444444" d="M 4 2 A 1.0001 1.0001 0 0 0 3.0800781 2.6054688 L 0.33984375 9 L 2.5175781 9 L 4.6601562 4 L 11.339844 4 L 13.482422 9 L 15.660156 9 L 12.919922 2.6054688 A 1.0001 1.0001 0 0 0 12 2 L 4 2 z M 0 10 L 0 12 C 0 13.108 0.892 14 2 14 L 14 14 C 15.108 14 16 13.108 16 12 L 16 10 L 11.333984 10 L 10 12 L 6 12 L 4.6660156 10 L 0 10 z"/>
</svg>

<svg width="16" height="16" version="1.1" xmlns="http://www.w3.org/2000/svg">
<path d="m4 2a1.0001 1.0001 0 0 0-0.91992 0.60547l-2.7402 6.3945h2.1777l2.1426-5h6.6797l2.1426 5h2.1777l-2.7402-6.3945a1.0001 1.0001 0 0 0-0.91992-0.60547h-8zm-4 8v2c0 1.108 0.892 2 2 2h12c1.108 0 2-0.892 2-2v-2h-4.666l-1.334 2h-4l-1.334-2h-4.666z" fill="#666"/>
</svg>
